app/component-library/components/Icons/Icon/assets/snaps-plus.svg

<svg width="24" height="24" viewBox="0 0 24 24" fill="none" xmlns="http://www.w3.org/2000/svg">
<path d="M17.1384 5.12828L11.7574 2.2289C11.186 1.9237 10.5098 1.9237 9.93839 2.2289L4.56696 5.12828C4.17649 5.34764 3.92887 5.76729 3.92887 6.22508C3.92887 6.69242 4.16696 7.11207 4.56696 7.32189L9.94792 10.2213C10.2336 10.3739 10.5479 10.4502 10.8527 10.4502C11.1574 10.4502 11.4812 10.3739 11.7574 10.2213L17.1384 7.32189C17.5289 7.11207 17.7765 6.69242 17.7765 6.22508C17.7765 5.76729 17.5289 5.34764 17.1384 5.12828Z" fill="currentColor"/>
<path d="M9.0622 11.2322L4.0622 8.73343C3.67173 8.53314 3.23363 8.56175 2.8622 8.78112C2.5003 9.01001 2.28125 9.40105 2.28125 9.83023V14.5608C2.28125 15.381 2.73839 16.1154 3.47173 16.4874L8.47173 18.9862C8.64315 19.072 8.83363 19.1197 9.02411 19.1197C9.24315 19.1197 9.47173 19.0529 9.67173 18.9385C10.0336 18.7096 10.2527 18.3186 10.2527 17.8894V13.1588C10.2432 12.3386 9.78601 11.6042 9.0622 11.2322Z" fill="currentColor"/>
<path d="M19.4241 9.83023V12.1764C18.967 12.0429 18.4813 11.9857 17.9955 11.9857C16.7003 11.9857 15.4336 12.434 14.4336 13.2351C13.0622 14.3128 12.2813 15.9437 12.2813 17.7082C12.2813 18.1755 12.3384 18.6428 12.4622 19.0911C12.3193 19.072 12.1765 19.0148 12.0432 18.9289C11.6813 18.7096 11.4622 18.3186 11.4622 17.8894V13.1588C11.4622 12.3386 11.9193 11.6042 12.6432 11.2322L17.6432 8.73343C18.0336 8.53314 18.4717 8.56176 18.8432 8.78112C19.2051 9.01001 19.4241 9.40105 19.4241 9.83023Z" fill="currentColor"/>
<path d="M21.3289 15.0377C21.3289 15.0281 21.3193 15.0186 21.3098 15.0091C21.2717 14.9518 21.2241 14.8946 21.1765 14.8469C21.167 14.8374 21.1574 14.8183 21.1479 14.8088C20.3765 13.9504 19.2432 13.4163 17.9955 13.4163C16.7955 13.4163 15.7003 13.9123 14.9193 14.7134C14.167 15.4859 13.7098 16.5446 13.7098 17.7082C13.7098 18.5093 13.9384 19.2723 14.3289 19.9208C14.5384 20.2737 14.8051 20.598 15.1098 20.865C15.1289 20.8746 15.1384 20.8841 15.1479 20.8937C15.1955 20.9413 15.2432 20.9795 15.3003 21.0272C15.3003 21.0272 15.3003 21.0272 15.3098 21.0272C15.3193 21.0367 15.3289 21.0463 15.3384 21.0463C16.0527 21.6471 16.9765 22 17.9955 22C19.5574 22 20.9193 21.1607 21.6622 19.9208C21.8812 19.5489 22.0527 19.1388 22.1574 18.7096C22.2432 18.3853 22.2813 18.0515 22.2813 17.7082C22.2813 16.6972 21.9289 15.7625 21.3289 15.0377ZM19.5955 18.4044H18.7098V19.3295C18.7098 19.7206 18.386 20.0448 17.9955 20.0448C17.6051 20.0448 17.2813 19.7206 17.2813 19.3295V18.4044H16.3955C16.0051 18.4044 15.6812 18.0801 15.6812 17.6891C15.6812 17.298 16.0051 16.9738 16.3955 16.9738H17.2813V16.1249C17.2813 15.7339 17.6051 15.4096 17.9955 15.4096C18.386 15.4096 18.7098 15.7339 18.7098 16.1249V16.9738H19.5955C19.986 16.9738 20.3098 17.298 20.3098 17.6891C20.3098 18.0801 19.9955 18.4044 19.5955 18.4044Z" fill="currentColor"/>
</svg>

<svg xmlns="http://www.w3.org/2000/svg" width="24" height="24" viewBox="0 0 24 24" fill="none"><path fill="currentColor" d="m17.138 5.128-5.38-2.9a1.921 1.921 0 0 0-1.82 0l-5.371 2.9a1.26 1.26 0 0 0-.638 1.097c0 .467.238.887.638 1.097l5.38 2.9a1.903 1.903 0 0 0 1.81 0l5.381-2.9c.39-.21.638-.63.638-1.097a1.26 1.26 0 0 0-.638-1.097ZM9.062 11.232l-5-2.499a1.223 1.223 0 0 0-1.78 1.097v4.73c0 .821.456 1.555 1.19 1.927l5 2.5c.171.085.362.133.552.133.22 0 .448-.067.648-.181.362-.23.58-.62.58-1.05v-4.73a2.186 2.186 0 0 0-1.19-1.927ZM19.424 9.83v2.346a5.112 5.112 0 0 0-1.428-.19 5.724 5.724 0 0 0-3.562 1.25c-1.372 1.077-2.153 2.708-2.153 4.472 0 .468.057.935.181 1.383a1.035 1.035 0 0 1-.419-.162 1.208 1.208 0 0 1-.58-1.04v-4.73c0-.82.456-1.555 1.18-1.927l5-2.499a1.223 1.223 0 0 1 1.781 1.097Z"/><path fill="currentColor" d="M21.329 15.038c0-.01-.01-.02-.02-.029a1.096 1.096 0 0 0-.133-.162c-.009-.01-.019-.029-.028-.038a4.231 4.231 0 0 0-3.152-1.393 4.277 4.277 0 0 0-4.286 4.292c0 .801.228 1.564.619 2.213.21.353.476.677.78.944.02.01.03.02.039.029.047.047.095.086.152.133h.01c.01.01.019.02.028.02.715.6 1.639.953 2.658.953 1.561 0 2.923-.84 3.666-2.08a4.5 4.5 0 0 0 .495-1.21c.086-.325.124-.659.124-1.002a4.175 4.175 0 0 0-.952-2.67Zm-1.733 3.366h-.886v.925a.72.72 0 0 1-.715.716.72.72 0 0 1-.714-.716v-.925h-.886a.72.72 0 0 1-.714-.715.72.72 0 0 1 .714-.715h.886v-.85a.72.72 0 0 1 .715-.714.72.72 0 0 1 .714.715v.849h.886a.72.72 0 0 1 .714.715.714.714 0 0 1-.714.715Z"/></svg>
